X:2
T:First magnitude star / प्रथम परिमाण तारा
M:4/4
L:1/8
Q:1/4=80
K:Em
|: E,2 B,E GBEB | C2 EG cEGc | D2 FA dFAd | B,2 D^F BD^FB :|
| e2 B2 G2 E2 | c2 G2 E2 C2 | d2 A2 F2 D2 | b2 f2 d2 B2 |
